X: 26649
T: Middling, Thank You
R: jig
M: 6/8
K: Gmajor
D|:dcB (d2 B)|(d2 B) gfe|dcB (d2 B)|(c2 A) FED|
dcB (d2 B)|(d2 B) gfe|dcB (c2 A)|FEF G3:|
|:gag (f2 g)|efe dBG|gag (f2 g)|afd g3|
gag (f2 g)|efe dBG|ABA e2 e|dcA G3:|

